X: 1
T: Piper And The Shrew, The
M: 4/4
L: 1/8
R: reel
K: Bmin
ABBB eBed-|decA BcdB|cBBB eBed-|[1decA BddB:|[2decA B3 d||
ABBB aAaf-|feef edcd|ABBB aAaf-|[1feae fecd:|[2feae f z3||
eccc Aced-|decA BcdB|eccc Aced-|[1dz cz B3 c:|[2decA BcBA||
Bfff eBed-|decA BcdA|BffB eBed-|decA BcBA|
BffB eBed-|decA BcdA|Bfff eBed|-decA BcBA||
acca ecaf-|feef edcd|acca ecaf-|faea decd:|
